client/public/game_modes/bouncing_ball/frame1.svg

<svg xmlns="http://www.w3.org/2000/svg" width="437" height="483" fill="none"><path fill="#EDEDED" d="M238 41h20v20h-20V41Zm0 20h20v20h-20V61Zm20 20h20v20h-20V81Zm0-20h20v20h-20V61Zm20 20h20v20h-20V81Zm0 20h20v20h-20v-20Zm-20 0h20v20h-20v-20Zm-20-20h20v20h-20V81Zm-20-20h20v20h-20V61Zm0-20h20v20h-20V41Z"/><path stroke="#EDEDED" stroke-width="5" d="M238 41h20v20m-20-20v20m0-20h-20v20m40 0h-20m20 0v20m0-20h20v20m-40-20v20m0-20h-20m40 20h-20m20 0h20m-20 0v20m-20-20v20h20m-20-20h-20V61m60 20v20m0-20h20v20m-20 0h-20m20 0h20m-20 0v20m-20-20v20h20m20-20v20h-20"/><path fill="#949494" d="M118 61h20v20h-20V61ZM98 81h20v20H98V81Zm0 60h20v20H98v-20Zm0 20h20v20H98v-20Zm0 20h20v20H98v-20Zm100 60h20v20h-20v-20Zm60 0h20v20h-20v-20Zm-20 0h20v20h-20v-20Zm-20 0h20v20h-20v-20Zm-40-20h20v20h-20v-20Zm0 20h20v20h-20v-20Zm-20-20h20v20h-20v-20Zm0 20h20v20h-20v-20Zm-20-40h20v20h-20v-20Zm0 20h20v20h-20v-20Zm-20-40h20v20h-20v-20Zm0 20h20v20h-20v-20Zm0-40h20v20h-20v-20Zm-20-40h20v20H98v-20Zm0-20h20v20H98v-20Z"/><path stroke="#949494" stroke-width="5" d="M118 81h20V61h-20v20Zm0 0H98v20m20-20v20m0 0H98m20 0v20m-20-20v20m0 20h20m-20 0v20m0-20v-20m20 20v20m0-20v-20m0 40H98m20 0v20m0-20h20v20m-40-20v20m20 0H98m20 0v20m0-20h20m-40 0v20h20m0 0h20m-20 0v20h20m60 20h20m-20 0v20m0-20v-20h-20m20 20h-20m40 0v20m0-20h20m-20 20h-20m20 0h20m-40 0h-20m80-20h20v20h-20m0-20v20m0-20h-20m20 20h-20m0-20v20m-60-40v20m0-20h-20m20 20v20m0-20h-20m20 20h-20v-20m0-20v20m0-20v-20h-20m20 20h-20m20 20h-20v-20m0-20v20m0-20v-20m-40-60h20"/><path fill="#D9D9D9" d="M138 41h20v20h-20V41Zm40-20h20v20h-20V21Zm0 20h20v20h-20V41Zm20-20h20v20h-20V21Zm40 0h20v20h-20V21Zm20 0h20v20h-20V21Zm0 20h20v20h-20V41Zm20 0h20v20h-20V41Zm0 20h20v20h-20V61Zm20 0h20v20h-20V61Zm0 60h20v20h-20v-20Zm0-20h20v20h-20v-20Zm0 40h20v20h-20v-20Zm0 40h20v20h-20v-20Zm0-100h20v20h-20V81Zm0 80h20v20h-20v-20Zm20-40h20v20h-20v-20Zm0-20h20v20h-20v-20Zm0 40h20v20h-20v-20Zm0-60h20v20h-20V81Zm0 80h20v20h-20v-20Zm-40-20h20v20h-20v-20Zm0-20h20v20h-20v-20Zm0 40h20v20h-20v-20Zm0 40h20v20h-20v-20Zm-20 20h20v20h-20v-20Zm60-40h20v20h-20v-20Zm-20 20h20v20h-20v-20Zm-20 20h20v20h-20v-20Zm-120-20h20v20h-20v-20Zm40 20h20v20h-20v-20Zm-40-60h20v20h-20v-20Zm-20 0h20v20h-20v-20Zm20-20h20v20h-20v-20Zm-20-20h20v20h-20v-20Zm0-20h20v20h-20v-20Zm20 0h20v20h-20v-20Zm-20-20h20v20h-20V81Zm20 0h20v20h-20V81Zm-20-20h20v20h-20V61Zm20 60h20v20h-20v-20Zm0-60h20v20h-20V61Zm-40 20h20v20h-20V81Zm0 60h20v20h-20v-20Zm0-20h20v20h-20v-20Zm0-20h20v20h-20v-20Zm20 40h20v20h-20v-20Zm20 40h20v20h-20v-20Zm-20 0h20v20h-20v-20Zm40 0h20v20h-20v-20Zm0 20h20v20h-20v-20Zm20 0h20v20h-20v-20Zm20 20h20v20h-20v-20Zm20 0h20v20h-20v-20Zm40-40h20v20h-20v-20ZM178 61h20v20h-20V61Zm0 40h20v20h-20v-20Zm0-20h20v20h-20V81Zm0 40h20v20h-20v-20Zm0 40h20v20h-20v-20Zm0-20h20v20h-20v-20Zm20-80h20v20h-20V61Zm0 20h20v20h-20V81Zm0 40h20v20h-20v-20Zm0-20h20v20h-20v-20Zm0 40h20v20h-20v-20Zm0 40h20v20h-20v-20Zm0-20h20v20h-20v-20Zm20-80h20v20h-20V81Zm0 20h20v20h-20v-20Zm0 40h20v20h-20v-20Zm0-20h20v20h-20v-20Zm0 40h20v20h-20v-20Zm0 40h20v20h-20v-20Zm0-20h20v20h-20v-20Zm20-80h20v20h-20v-20Zm0 20h20v20h-20v-20Zm0 40h20v20h-20v-20Zm0-20h20v20h-20v-20Zm0 60h20v20h-20v-20Zm0-20h20v20h-20v-20Zm20-60h20v20h-20v-20Zm0 20h20v20h-20v-20Zm0 40h20v20h-20v-20Zm0 20h20v20h-20v-20Zm0-40h20v20h-20v-20ZM198 41h20v20h-20V41Zm20-20h20v20h-20V21Zm-60 0h20v20h-20V21Zm0 20h20v20h-20V41Z"/><path stroke="#D9D9D9" stroke-width="5" d="M158 41h-20v20m20-20v20m0-20h20m-20 0V21h20m-20 40h-20m20 0v20m0-20h20m-40 0v20m40-60h20m-20 0v20m20-20v20m0-20h20m-20 20h-20m20 0v20m0-20h20m-40 0v20m20 0h-20m20 0v20m0-20h20m-40 0v20m40-60v20m0-20h20m-20 20v20m0-20h20m0-20h20m-20 0v20m20-20v20m0-20h20v20m-20 0h-20m20 0h20m-20 0v20h20m0-20v20m0-20h20v20m-20 0h20m-20 0v20h20m0-20v20m0-20h20v20m-20 0h20m-20 0v20m20-20v20m0-20h20v20m-40 20h20m-20 0v20m0-20v-20m0 20h-20m40 0v20m0-20v-20m0 20h20m-20 20h-20m20 0v20m0-20h20m-40 0v20m0-20h-20m20-40h20m0 0h20m-20 60h-20m20 0v20m0-20h20m-40 0v20m0-20h-20m20 20h20m-20 0v20m0-20h-20m40 0v20m0-20h20m-20 20h-20m20 0h20v-20m-20 20v20h-20m0-20h-20m20 0v20m40-100v20m0-20v-20m0 40v20m0 0v20m-60-40v20m0-20v-20m0 20h-20m20 20v20m0-20h-20m20-40h-20m20 60v20m0-20h-20m20 20v20m0-20h-20m40 20h-20m20 0v20h-20m0-20h-20m20 0v20m-20-20v20m0-20h-20m20 0v-20m20 40h-20m0 0h-20m-80-40h20m-20 0v20h20m-20-20v-20m0 20h-20v-20m40 20v20m0-20v-20m0 20h20m-20 20h20m0 0h20m-20 0v20h20m-20-20v-20m20 20v20m0-20v-20m0 20h20m-20 20h20m-80-80h20m-20 0v20m0-20h-20m20 0v-20m20 20v20m0-20v-20m0 20h20m-20 20h-20m20 0h20m-40 0h-20m0-20v20m0-20v-20m0 20h-20v-20m40 0h20m-20 0v-20m0 20h-20m40 0v-20m0 20h20m-60-20h20m-20 0v20m0-20v-20m0 20h-20m40 0v-20m0 20h20m-40 20h-20m20-40h20m-20 0V81m0 20h-20m40 0h20m-20 0V81m20 20v20m0-20V81m0 20h20m-20 20h20m-60-40h20m-20 0h-20v20m40-20h20m0 0h20m-80 20v20m0 20v-20m80 60v20m0-20v-20m0 20h20m-20 20h20m0 0v-20m0 20h20m0 20v20m0-20v-20M198 81v20m0-20h20m-20 20v20m0-20h20m-20 20v20m0-20h20m-20 20v20m0-20h20m-20 20h20m0-100v20m0 0v20m0-20h20v20m-20 0v20m0-20h20m-20 20v20m0-20h20m-20 20v20m0-20h20m-20 20v20m0-20h20m-20 20h20m0-80v20m0-20h20v20m-20 0v20m0-20h20m-20 20v20m0-20h20m-20 20v20m0-20h20m-20 20v20m0-20h20m-20 20h20m0-80v20m0 0v20m0 0v20m0 0v20"/></svg>

<svg width="437" height="483" viewBox="0 0 437 483" fill="none" xmlns="http://www.w3.org/2000/svg">
<path d="M238 41H258V61H238V41Z" fill="#EDEDED"/>
<path d="M238 61H258V81H238V61Z" fill="#EDEDED"/>
<path d="M258 81H278V101H258V81Z" fill="#EDEDED"/>
<path d="M258 61H278V81H258V61Z" fill="#EDEDED"/>
<path d="M278 81H298V101H278V81Z" fill="#EDEDED"/>
<path d="M278 101H298V121H278V101Z" fill="#EDEDED"/>
<path d="M258 101H278V121H258V101Z" fill="#EDEDED"/>
<path d="M238 81H258V101H238V81Z" fill="#EDEDED"/>
<path d="M218 61H238V81H218V61Z" fill="#EDEDED"/>
<path d="M218 41H238V61H218V41Z" fill="#EDEDED"/>
<path d="M238 41H258V61M238 41V61M238 41H218V61M258 61H238M258 61V81M258 61H278V81M238 61V81M238 61H218M258 81H238M258 81H278M258 81V101M238 81V101H258M238 81H218V61M278 81V101M278 81H298V101M278 101H258M278 101H298M278 101V121M258 101V121H278M298 101V121H278" stroke="#EDEDED" stroke-width="5"/>
<path d="M118 61H138V81H118V61Z" fill="#949494"/>
<path d="M98 81H118V101H98V81Z" fill="#949494"/>
<path d="M98 141H118V161H98V141Z" fill="#949494"/>
<path d="M98 161H118V181H98V161Z" fill="#949494"/>
<path d="M98 181H118V201H98V181Z" fill="#949494"/>
<path d="M198 241H218V261H198V241Z" fill="#949494"/>
<path d="M258 241H278V261H258V241Z" fill="#949494"/>
<path d="M238 241H258V261H238V241Z" fill="#949494"/>
<path d="M218 241H238V261H218V241Z" fill="#949494"/>
<path d="M178 221H198V241H178V221Z" fill="#949494"/>
<path d="M178 241H198V261H178V241Z" fill="#949494"/>
<path d="M158 221H178V241H158V221Z" fill="#949494"/>
<path d="M158 241H178V261H158V241Z" fill="#949494"/>
<path d="M138 201H158V221H138V201Z" fill="#949494"/>
<path d="M138 221H158V241H138V221Z" fill="#949494"/>
<path d="M118 181H138V201H118V181Z" fill="#949494"/>
<path d="M118 201H138V221H118V201Z" fill="#949494"/>
<path d="M118 161H138V181H118V161Z" fill="#949494"/>
<path d="M98 121H118V141H98V121Z" fill="#949494"/>
<path d="M98 101H118V121H98V101Z" fill="#949494"/>
<path d="M118 81H138V61H118V81ZM118 81H98V101M118 81V101M118 101H98M118 101V121M98 101V121M98 141H118M98 141V161M98 141V121M118 141V161M118 141V121M118 161H98M118 161V181M118 161H138V181M98 161V181M118 181H98M118 181V201M118 181H138M98 181V201H118M118 201H138M118 201V221H138M198 241H218M198 241V261M198 241V221H178M198 241H178M218 241V261M218 241H238M218 261H198M218 261H238M198 261H178M258 241H278V261H258M258 241V261M258 241H238M258 261H238M238 241V261M178 221V241M178 221H158M178 241V261M178 241H158M178 261H158V241M158 221V241M158 221V201H138M158 221H138M158 241H138V221M138 201V221M138 201V181M98 121H118" stroke="#949494" stroke-width="5"/>
<path d="M138 41H158V61H138V41Z" fill="#D9D9D9"/>
<path d="M178 21H198V41H178V21Z" fill="#D9D9D9"/>
<path d="M178 41H198V61H178V41Z" fill="#D9D9D9"/>
<path d="M198 21H218V41H198V21Z" fill="#D9D9D9"/>
<path d="M238 21H258V41H238V21Z" fill="#D9D9D9"/>
<path d="M258 21H278V41H258V21Z" fill="#D9D9D9"/>
<path d="M258 41H278V61H258V41Z" fill="#D9D9D9"/>
<path d="M278 41H298V61H278V41Z" fill="#D9D9D9"/>
<path d="M278 61H298V81H278V61Z" fill="#D9D9D9"/>
<path d="M298 61H318V81H298V61Z" fill="#D9D9D9"/>
<path d="M298 121H318V141H298V121Z" fill="#D9D9D9"/>
<path d="M298 101H318V121H298V101Z" fill="#D9D9D9"/>
<path d="M298 141H318V161H298V141Z" fill="#D9D9D9"/>
<path d="M298 181H318V201H298V181Z" fill="#D9D9D9"/>
<path d="M298 81H318V101H298V81Z" fill="#D9D9D9"/>
<path d="M298 161H318V181H298V161Z" fill="#D9D9D9"/>
<path d="M318 121H338V141H318V121Z" fill="#D9D9D9"/>
<path d="M318 101H338V121H318V101Z" fill="#D9D9D9"/>
<path d="M318 141H338V161H318V141Z" fill="#D9D9D9"/>
<path d="M318 81H338V101H318V81Z" fill="#D9D9D9"/>
<path d="M318 161H338V181H318V161Z" fill="#D9D9D9"/>
<path d="M278 141H298V161H278V141Z" fill="#D9D9D9"/>
<path d="M278 121H298V141H278V121Z" fill="#D9D9D9"/>
<path d="M278 161H298V181H278V161Z" fill="#D9D9D9"/>
<path d="M278 201H298V221H278V201Z" fill="#D9D9D9"/>
<path d="M258 221H278V241H258V221Z" fill="#D9D9D9"/>
<path d="M318 181H338V201H318V181Z" fill="#D9D9D9"/>
<path d="M298 201H318V221H298V201Z" fill="#D9D9D9"/>
<path d="M278 221H298V241H278V221Z" fill="#D9D9D9"/>
<path d="M158 201H178V221H158V201Z" fill="#D9D9D9"/>
<path d="M198 221H218V241H198V221Z" fill="#D9D9D9"/>
<path d="M158 161H178V181H158V161Z" fill="#D9D9D9"/>
<path d="M138 161H158V181H138V161Z" fill="#D9D9D9"/>
<path d="M158 141H178V161H158V141Z" fill="#D9D9D9"/>
<path d="M138 121H158V141H138V121Z" fill="#D9D9D9"/>
<path d="M138 101H158V121H138V101Z" fill="#D9D9D9"/>
<path d="M158 101H178V121H158V101Z" fill="#D9D9D9"/>
<path d="M138 81H158V101H138V81Z" fill="#D9D9D9"/>
<path d="M158 81H178V101H158V81Z" fill="#D9D9D9"/>
<path d="M138 61H158V81H138V61Z" fill="#D9D9D9"/>
<path d="M158 121H178V141H158V121Z" fill="#D9D9D9"/>
<path d="M158 61H178V81H158V61Z" fill="#D9D9D9"/>
<path d="M118 81H138V101H118V81Z" fill="#D9D9D9"/>
<path d="M118 141H138V161H118V141Z" fill="#D9D9D9"/>
<path d="M118 121H138V141H118V121Z" fill="#D9D9D9"/>
<path d="M118 101H138V121H118V101Z" fill="#D9D9D9"/>
<path d="M138 141H158V161H138V141Z" fill="#D9D9D9"/>
<path d="M158 181H178V201H158V181Z" fill="#D9D9D9"/>
<path d="M138 181H158V201H138V181Z" fill="#D9D9D9"/>
<path d="M178 181H198V201H178V181Z" fill="#D9D9D9"/>
<path d="M178 201H198V221H178V201Z" fill="#D9D9D9"/>
<path d="M198 201H218V221H198V201Z" fill="#D9D9D9"/>
<path d="M218 221H238V241H218V221Z" fill="#D9D9D9"/>
<path d="M238 221H258V241H238V221Z" fill="#D9D9D9"/>
<path d="M278 181H298V201H278V181Z" fill="#D9D9D9"/>
<path d="M178 61H198V81H178V61Z" fill="#D9D9D9"/>
<path d="M178 101H198V121H178V101Z" fill="#D9D9D9"/>
<path d="M178 81H198V101H178V81Z" fill="#D9D9D9"/>
<path d="M178 121H198V141H178V121Z" fill="#D9D9D9"/>
<path d="M178 161H198V181H178V161Z" fill="#D9D9D9"/>
<path d="M178 141H198V161H178V141Z" fill="#D9D9D9"/>
<path d="M198 61H218V81H198V61Z" fill="#D9D9D9"/>
<path d="M198 81H218V101H198V81Z" fill="#D9D9D9"/>
<path d="M198 121H218V141H198V121Z" fill="#D9D9D9"/>
<path d="M198 101H218V121H198V101Z" fill="#D9D9D9"/>
<path d="M198 141H218V161H198V141Z" fill="#D9D9D9"/>
<path d="M198 181H218V201H198V181Z" fill="#D9D9D9"/>
<path d="M198 161H218V181H198V161Z" fill="#D9D9D9"/>
<path d="M218 81H238V101H218V81Z" fill="#D9D9D9"/>
<path d="M218 101H238V121H218V101Z" fill="#D9D9D9"/>
<path d="M218 141H238V161H218V141Z" fill="#D9D9D9"/>
<path d="M218 121H238V141H218V121Z" fill="#D9D9D9"/>
<path d="M218 161H238V181H218V161Z" fill="#D9D9D9"/>
<path d="M218 201H238V221H218V201Z" fill="#D9D9D9"/>
<path d="M218 181H238V201H218V181Z" fill="#D9D9D9"/>
<path d="M238 101H258V121H238V101Z" fill="#D9D9D9"/>
<path d="M238 121H258V141H238V121Z" fill="#D9D9D9"/>
<path d="M238 161H258V181H238V161Z" fill="#D9D9D9"/>
<path d="M238 141H258V161H238V141Z" fill="#D9D9D9"/>
<path d="M238 201H258V221H238V201Z" fill="#D9D9D9"/>
<path d="M238 181H258V201H238V181Z" fill="#D9D9D9"/>
<path d="M258 121H278V141H258V121Z" fill="#D9D9D9"/>
<path d="M258 141H278V161H258V141Z" fill="#D9D9D9"/>
<path d="M258 181H278V201H258V181Z" fill="#D9D9D9"/>
<path d="M258 201H278V221H258V201Z" fill="#D9D9D9"/>
<path d="M258 161H278V181H258V161Z" fill="#D9D9D9"/>
<path d="M198 41H218V61H198V41Z" fill="#D9D9D9"/>
<path d="M218 21H238V41H218V21Z" fill="#D9D9D9"/>
<path d="M158 21H178V41H158V21Z" fill="#D9D9D9"/>
<path d="M158 41H178V61H158V41Z" fill="#D9D9D9"/>
<path d="M158 41H138V61M158 41V61M158 41H178M158 41V21H178M158 61H138M158 61V81M158 61H178M138 61V81M178 21H198M178 21V41M198 21V41M198 21H218M198 41H178M198 41V61M198 41H218M178 41V61M198 61H178M198 61V81M198 61H218M178 61V81M218 21V41M218 21H238M218 41V61M218 41H238M238 21H258M238 21V41M258 21V41M258 21H278V41M258 41H238M258 41H278M258 41V61H278M278 41V61M278 41H298V61M278 61H298M278 61V81H298M298 61V81M298 61H318V81M298 81H318M298 81V101M318 81V101M318 81H338V101M298 121H318M298 121V141M298 121V101M298 121H278M318 121V141M318 121V101M318 121H338M318 141H298M318 141V161M318 141H338M298 141V161M298 141H278M298 101H318M318 101H338M318 161H298M318 161V181M318 161H338M298 161V181M298 161H278M298 181H318M298 181V201M298 181H278M318 181V201M318 181H338M318 201H298M318 201H338V181M318 201V221H298M298 201H278M298 201V221M338 121V141M338 121V101M338 141V161M338 161V181M278 141V161M278 141V121M278 141H258M278 161V181M278 161H258M278 121H258M278 181V201M278 181H258M278 201V221M278 201H258M298 221H278M298 221V241H278M278 221H258M278 221V241M258 221V241M258 221H238M258 221V201M278 241H258M258 241H238M158 201H178M158 201V221H178M158 201V181M158 201H138V181M178 201V221M178 201V181M178 201H198M178 221H198M198 221H218M198 221V241H218M198 221V201M218 221V241M218 221V201M218 221H238M218 241H238M158 161H178M158 161V181M158 161H138M158 161V141M178 161V181M178 161V141M178 161H198M178 181H158M178 181H198M158 181H138M138 161V181M138 161V141M138 161H118V141M158 141H178M158 141V121M158 141H138M178 141V121M178 141H198M138 121H158M138 121V141M138 121V101M138 121H118M158 121V101M158 121H178M138 141H118M138 101H158M138 101V81M138 101H118M158 101H178M158 101V81M178 101V121M178 101V81M178 101H198M178 121H198M138 81H158M138 81H118V101M158 81H178M178 81H198M118 101V121M118 141V121M198 181V201M198 181V161M198 181H218M198 201H218M218 201V181M218 201H238M238 221V241M238 221V201M198 81V101M198 81H218M198 101V121M198 101H218M198 121V141M198 121H218M198 141V161M198 141H218M198 161H218M218 61V81M218 81V101M218 81H238V101M218 101V121M218 101H238M218 121V141M218 121H238M218 141V161M218 141H238M218 161V181M218 161H238M218 181H238M238 101V121M238 101H258V121M238 121V141M238 121H258M238 141V161M238 141H258M238 161V181M238 161H258M238 181V201M238 181H258M238 201H258M258 121V141M258 141V161M258 161V181M258 181V201" stroke="#D9D9D9" stroke-width="5"/>
</svg>
